svgs/regular/people-roof.svg

<svg xmlns="http://www.w3.org/2000/svg" viewBox="0 0 640 512"><!--! Font Awesome Pro 6.5.1 by @fontawesome - https://fontawesome.com License - https://fontawesome.com/license (Commercial License) Copyright 2023 Fonticons, Inc. --><path d="M332.3 3.4l296 176c11.4 6.8 15.1 21.5 8.4 32.9s-21.5 15.1-32.9 8.4L320 51.9 36.3 220.6c-11.4 6.8-26.1 3-32.9-8.4s-3-26.1 8.4-32.9l296-176c7.6-4.5 17-4.5 24.5 0zM496 256a40 40 0 1 1 0 80 40 40 0 1 1 0-80zM480 464h32V400.5c-2-.3-4.1-.5-6.2-.5H486.2c-2.1 0-4.2 .2-6.2 .5V464zm98.9 27.4l-18.9-35V480c0 17.7-14.3 32-32 32H464c-17.7 0-32-14.3-32-32V456.3l-18.9 35c-6.3 11.7-20.8 16-32.5 9.8s-16-20.8-9.8-32.5l36.3-67.5c-1.7-1.7-3.2-3.6-4.3-5.8l-18.9-35V400c0 17.7-14.3 32-32 32H288c-17.7 0-32-14.3-32-32V360.3l-18.9 35c-1.2 2.2-2.6 4.1-4.3 5.8l36.3 67.5c6.3 11.7 1.9 26.2-9.8 32.5s-26.2 1.9-32.5-9.8l-18.9-35V480c0 17.7-14.3 32-32 32H112c-17.7 0-32-14.3-32-32V456.3l-18.9 35c-6.3 11.7-20.8 16-32.5 9.8s-16-20.8-9.8-32.5l37.9-70.3c15.3-28.5 45.1-46.3 77.5-46.3h19.5c16.3 0 31.9 4.5 45.4 12.6l33.6-62.3c15.3-28.5 45.1-46.3 77.5-46.3h19.5c32.4 0 62.1 17.8 77.5 46.3l33.6 62.3c13.5-8.1 29.1-12.6 45.4-12.6h19.5c32.4 0 62.1 17.8 77.5 46.3l37.9 70.3c6.3 11.7 1.9 26.2-9.8 32.5s-26.2 1.9-32.5-9.8zM280 200a40 40 0 1 1 80 0 40 40 0 1 1 -80 0zm24 104.5V384h32V304.5c-2-.3-4.1-.5-6.2-.5H310.2c-2.1 0-4.2 .2-6.2 .5zM144 256a40 40 0 1 1 0 80 40 40 0 1 1 0-80zM128 464h32V400.5c-2-.3-4.1-.5-6.2-.5H134.2c-2.1 0-4.2 .2-6.2 .5V464z"/></svg>

<svg xmlns="http://www.w3.org/2000/svg" viewBox="0 0 640 512"><!--! Font Awesome Pro 6.1.1 by @fontawesome - https://fontawesome.com License - https://fontawesome.com/license (Commercial License) Copyright 2022 Fonticons, Inc. --><path d="M628.3 179.4C639.7 186.1 643.4 200.9 636.6 212.3C629.9 223.7 615.1 227.4 603.7 220.6L320 51.92L36.27 220.6C24.88 227.4 10.15 223.7 3.375 212.3C-3.399 200.9 .3447 186.1 11.74 179.4L307.7 3.371C315.3-1.124 324.7-1.124 332.3 3.371L628.3 179.4zM456 296C456 273.9 473.9 256 496 256C518.1 256 536 273.9 536 296C536 318.1 518.1 336 496 336C473.9 336 456 318.1 456 296zM578.9 491.4L560 456.3V480C560 497.7 545.7 512 528 512H464C446.3 512 432 497.7 432 480V456.3L413.1 491.4C406.9 503 392.3 507.4 380.6 501.1C368.1 494.8 364.6 480.3 370.9 468.6L407.2 401.1C405.5 399.5 404.1 397.6 402.9 395.4L384 360.3V400C384 417.7 369.7 432 352 432H288C270.3 432 256 417.7 256 400V360.3L237.1 395.4C235.1 397.6 234.5 399.5 232.8 401.1L269.1 468.6C275.4 480.3 271.1 494.8 259.4 501.1C247.7 507.4 233.2 503 226.9 491.4L208 456.3V480C208 497.7 193.7 512 176 512H112C94.33 512 80.01 497.7 80.01 480V456.3L61.14 491.4C54.85 503 40.3 507.4 28.63 501.1C16.96 494.8 12.59 480.3 18.88 468.6L56.75 398.3C72.1 369.8 101.9 352 134.2 352H153.8C170.1 352 185.7 356.5 199.2 364.6L232.8 302.3C248.1 273.8 277.9 256 310.2 256H329.8C362.2 256 391.9 273.8 407.3 302.3L440.8 364.6C454.3 356.5 469.9 352 486.2 352H505.8C538.2 352 567.9 369.8 583.3 398.3L621.1 468.6C627.4 480.3 623.1 494.8 611.4 501.1C599.7 507.4 585.2 503 578.9 491.4L578.9 491.4zM512 464V400.5C509.1 400.2 507.9 400 505.8 400H486.2C484.1 400 482 400.2 480 400.5V464H512zM304 304.5V384H336V304.5C333.1 304.2 331.9 304 329.8 304H310.2C308.1 304 306 304.2 304 304.5zM160 464V400.5C157.1 400.2 155.9 400 153.8 400H134.2C132.1 400 130 400.2 128 400.5V464H160zM360 200C360 222.1 342.1 240 320 240C297.9 240 280 222.1 280 200C280 177.9 297.9 160 320 160C342.1 160 360 177.9 360 200zM104 296C104 273.9 121.9 256 144 256C166.1 256 184 273.9 184 296C184 318.1 166.1 336 144 336C121.9 336 104 318.1 104 296z"/></svg>
